img/logo.svg

<svg xmlns="http://www.w3.org/2000/svg" width="154" height="154" viewBox="0 0 154 154">
  <path fill="#1E87F0" fill-rule="evenodd" d="M77,154 C34.4740743,154 0,119.525926 0,77 C0,34.4740743 34.4740743,0 77,0 C119.525926,0 154,34.4740743 154,77 C154,119.525926 119.525926,154 77,154 Z M77.1675,115.4875 C81.6525224,115.4875 86.3812251,115.016255 91.35375,114.07375 C96.3262749,113.131245 101.119977,111.65251 105.735,109.6375 C110.025021,107.752491 112.17,104.82752 112.17,100.8625 C112.17,99.6274938 111.910003,98.6200039 111.39,97.84 C110.869997,97.0599961 110.090005,96.67 109.05,96.67 C108.399997,96.67 107.587505,96.864998 106.6125,97.255 C101.347474,99.465011 96.5537716,101.106245 92.23125,102.17875 C87.9087284,103.251255 83.6350211,103.7875 79.41,103.7875 C70.8949574,103.7875 64.4600218,101.658771 60.105,97.40125 C55.7499782,93.1437287 53.5725,87.115039 53.5725,79.315 C53.5725,71.8399626 54.774988,65.3887771 57.18,59.96125 C59.585012,54.5337229 62.7374805,50.422514 66.6375,47.6275 C70.5375195,44.832486 74.6324785,43.435 78.9225,43.435 C85.2275315,43.435 88.38,46.3924704 88.38,52.3075 C88.38,53.4775059 88.1850019,55.0374903 87.795,56.9875 C87.5349987,58.5475078 87.405,59.6199971 87.405,60.205 C87.405,61.8300081 87.9249948,63.0649958 88.965,63.91 C90.0050052,64.7550042 91.4349909,65.1775 93.255,65.1775 C95.855013,65.1775 97.853743,63.975012 99.25125,61.57 C100.648757,59.164988 101.3475,55.9800198 101.3475,52.015 C101.3475,46.0999704 99.5275182,41.338768 95.8875,37.73125 C92.2474818,34.123732 86.9175351,32.32 79.8975,32.32 C72.3574623,32.32 65.5000309,34.3512297 59.325,38.41375 C53.1499691,42.4762703 48.258768,48.212463 44.65125,55.6225 C41.043732,63.032537 39.24,71.5149522 39.24,81.07 C39.24,87.9600344 40.7674847,94.004974 43.8225,99.205 C46.8775153,104.405026 51.2649714,108.418736 56.985,111.24625 C62.7050286,114.073764 69.4324613,115.4875 77.1675,115.4875 Z"/>
</svg>

<svg xmlns="http://www.w3.org/2000/svg" width="154" height="154" viewBox="0 0 154 154"><path fill="#1E87F0" fill-rule="evenodd" d="M77 154c-42.526 0-77-34.474-77-77S34.474 0 77 0s77 34.474 77 77-34.474 77-77 77zm.168-38.513c4.485 0 9.213-.47 14.186-1.413 4.972-.943 9.766-2.421 14.381-4.436 4.29-1.886 6.435-4.81 6.435-8.776 0-1.235-.26-2.242-.78-3.022-.52-.78-1.3-1.17-2.34-1.17-.65 0-1.462.195-2.438.585-5.265 2.21-10.058 3.851-14.38 4.924-4.323 1.072-8.597 1.608-12.822 1.608-8.515 0-14.95-2.128-19.305-6.386-4.355-4.257-6.532-10.286-6.532-18.086 0-7.475 1.202-13.926 3.607-19.354 2.405-5.427 5.557-9.538 9.458-12.334 3.9-2.795 7.994-4.192 12.284-4.192 6.306 0 9.458 2.957 9.458 8.872 0 1.17-.195 2.73-.585 4.68-.26 1.56-.39 2.633-.39 3.218 0 1.625.52 2.86 1.56 3.705 1.04.845 2.47 1.267 4.29 1.267 2.6 0 4.599-1.202 5.996-3.607 1.398-2.405 2.096-5.59 2.096-9.555 0-5.915-1.82-10.676-5.46-14.284-3.64-3.607-8.97-5.411-15.99-5.411-7.54 0-14.397 2.031-20.572 6.094-6.175 4.062-11.066 9.798-14.674 17.209-3.607 7.41-5.411 15.892-5.411 25.447 0 6.89 1.527 12.935 4.582 18.135 3.056 5.2 7.443 9.214 13.163 12.041 5.72 2.828 12.447 4.242 20.183 4.242z"/></svg>
